X:1
T: The Fisherman's Widow
C:
R:Jig
Q:180
K:D
M:6/8
L:1/16
A2|F4G2 A2F2A2|d2c2A2 A2G2F2|G6 A2B2c2|d2e2d2 c2A2G2|F4G2 A2F2A2|d2c2A2 A2G2F2|G2F2G2 A2B2G2|A2F2D2 D4A2|
F4G2 A2F2A2|d2c2A2 A2G2F2|G6 A2B2c2|d2e2d2 c2A2G2|F4G2 A2F2A2|d2c2A2 A2G2F2|G2F2G2 A2B2G2|A2F2D2 D4A2|
d4e2 f4d2|d2c2A2 A2B2c2|d4e2 f4g2|a2f2d2 d2c2A2|d4e2 f4d2|d2c2A2 A2G2F2|G2F2G2 A2B2G2|A2F2D2 D6|
d4e2 f4d2|d2c2A2 A2B2c2|d4e2 f4g2|a2f2d2 d2c2A2|a2f2a2 g2e2g2|f2e2d2 c2A2F2|G4A2 B2A2G2|A2F2D2 D4||
